actions/24/document-export-symbolic.svg

<?xml version="1.0" encoding="UTF-8" standalone="no"?>
<svg
   height="24"
   width="24"
   version="1.1"
   id="svg7527"
   sodipodi:docname="document-export-symbolic.svg"
   inkscape:version="1.2.2 (b0a8486541, 2022-12-01)"
   xmlns:inkscape="http://www.inkscape.org/namespaces/inkscape"
   xmlns:sodipodi="http://sodipodi.sourceforge.net/DTD/sodipodi-0.dtd"
   xmlns="http://www.w3.org/2000/svg"
   xmlns:svg="http://www.w3.org/2000/svg">
  <defs
     id="defs7531" />
  <sodipodi:namedview
     id="namedview7529"
     pagecolor="#ffffff"
     bordercolor="#000000"
     borderopacity="0.25"
     inkscape:showpageshadow="2"
     inkscape:pageopacity="0.0"
     inkscape:pagecheckerboard="0"
     inkscape:deskcolor="#d1d1d1"
     showgrid="false"
     inkscape:zoom="33.5"
     inkscape:cx="14.014925"
     inkscape:cy="13.910448"
     inkscape:window-width="1278"
     inkscape:window-height="1005"
     inkscape:window-x="300"
     inkscape:window-y="650"
     inkscape:window-maximized="0"
     inkscape:current-layer="svg7527" />
  <path
     id="path7523"
     style="marker:none;fill:#555761;fill-opacity:1"
     d="M 4 2 C 4 2 2 2.000002 2 4 L 2 20 C 2 21.999998 4 22 4 22 L 20 22 C 20 22 22 21.999998 22 20 L 22 15.375 L 20 17.064453 L 20 19 C 20 19.999999 19 20 19 20 L 5 20 C 5 20 4 19.999999 4 19 L 4 5 C 4 4.000001 5 4 5 4 L 19 4 C 19.999999 4 20 5 20 5 L 20 6.9355469 L 22 8.625 L 22 4 C 22 2.000002 20 2 20 2 L 4 2 z " />
  <path
     id="rect3396"
     style="fill:#555761;fill-opacity:1;stroke:none;stroke-width:0.999995;stroke-linejoin:round;stroke-opacity:0.5;stop-color:#000000"
     d="m 17.003906,7.0000011 c -0.141664,-7.402e-4 -0.28391,0.028978 -0.417968,0.089844 C 16.229132,7.2521801 16.000061,7.6080022 16,8.0000011 V 10 h -5 c -0.553998,0 -1,0.446002 -1,1 v 2 c 0,0.553998 0.446002,1 1,1 h 5 v 1.999024 c 9.5e-4,0.858428 1.011819,1.316832 1.658203,0.751952 l 4.500796,-3.799006 c 0.454309,-0.398371 0.454309,-1.505629 0,-1.904 L 17.658203,7.248048 C 17.473588,7.0864021 17.240014,7.0012348 17.003906,7.0000011 Z"
     sodipodi:nodetypes="scccssssccccccs" />
  <path
     id="path7672"
     style="fill:#555761;fill-opacity:1;stroke:#000000;stroke-width:3.5;stroke-linejoin:round;stroke-dasharray:none;stroke-opacity:1;stop-color:#000000"
     d="m 36.003383,7.0000011 c -0.141664,-7.402e-4 -0.28391,0.028978 -0.417968,0.089844 -0.356806,0.162335 -0.585877,0.5181571 -0.585938,0.910156 V 10 h -5 c -0.553998,0 -1,0.446002 -1,1 v 2 c 0,0.553998 0.446002,1 1,1 h 5 v 1.999024 c 9.5e-4,0.858428 1.011819,1.316832 1.658203,0.751952 l 4.500796,-3.799006 c 0.454309,-0.398371 0.454309,-1.505629 0,-1.904 L 36.65768,7.248048 C 36.473065,7.0864021 36.239491,7.0012348 36.003383,7.0000011 Z"
     sodipodi:nodetypes="scccssssccccccs" />
</svg>

<svg
        xmlns='http://www.w3.org/2000/svg'
        xmlns:svg='http://www.w3.org/2000/svg'
        id='svg7527'
        width='24'
        height='24'>
  <path
          id='path7523'
          fill='url(#gpa:foreground) #555761'
          fill-opacity='1'
          fill-rule='nonzero'
          marker-start='none'
          marker-mid='none'
          marker-end='none'
          d='M 4 2 C 4 2, 2 2, 2 4 L 2 20 C 2 22, 4 22, 4 22 L 20 22 C 20 22, 22 22, 22 20 L 22 15.375 L 20 17.0645 L 20 19 C 20 20, 19 20, 19 20 L 5 20 C 5 20, 4 20, 4 19 L 4 5 C 4 4, 5 4, 5 4 L 19 4 C 20 4, 20 5, 20 5 L 20 6.93555 L 22 8.625 L 22 4 C 22 2, 20 2, 20 2 L 4 2 Z'
          class="foreground">
  </path>
  <path
          id='rect3396'
          fill='url(#gpa:foreground) #555761'
          fill-opacity='1'
          fill-rule='nonzero'
          stroke='none'
          stroke-opacity='0.5'
          stroke-width='0.999995'
          stroke-linejoin='round'
          d='M 17.0039 7 C 16.8622 6.99926, 16.72 7.02898, 16.5859 7.08985 C 16.2291 7.25218, 16.0001 7.608, 16 8 L 16 10 L 11 10 C 10.446 10, 10 10.446, 10 11 L 10 13 C 10 13.554, 10.446 14, 11 14 L 16 14 L 16 15.999 C 16.0009 16.8575, 17.0118 17.3159, 17.6582 16.751 L 22.159 12.952 C 22.6133 12.5536, 22.6133 11.4463, 22.159 11.048 L 17.6582 7.24805 C 17.4736 7.0864, 17.24 7.00124, 17.0039 7 Z'
          class="foreground">
  </path>
</svg>
